cssgg/eye.svg

<svg
  width="24"
  height="24"
  viewBox="0 0 24 24"
  fill="none"
  xmlns="http://www.w3.org/2000/svg"
>
  <path
    fill-rule="evenodd"
    clip-rule="evenodd"
    d="M16 12C16 14.2091 14.2091 16 12 16C9.79086 16 8 14.2091 8 12C8 9.79086 9.79086 8 12 8C14.2091 8 16 9.79086 16 12ZM14 12C14 13.1046 13.1046 14 12 14C10.8954 14 10 13.1046 10 12C10 10.8954 10.8954 10 12 10C13.1046 10 14 10.8954 14 12Z"
    fill="currentColor"
  />
  <path
    fill-rule="evenodd"
    clip-rule="evenodd"
    d="M12 3C17.5915 3 22.2898 6.82432 23.6219 12C22.2898 17.1757 17.5915 21 12 21C6.40848 21 1.71018 17.1757 0.378052 12C1.71018 6.82432 6.40848 3 12 3ZM12 19C7.52443 19 3.73132 16.0581 2.45723 12C3.73132 7.94186 7.52443 5 12 5C16.4756 5 20.2687 7.94186 21.5428 12C20.2687 16.0581 16.4756 19 12 19Z"
    fill="currentColor"
  />
</svg>

<svg viewBox="0 0 24 24" xmlns="http://www.w3.org/2000/svg"><g fill-rule="evenodd"><path d="M16 12c0 2.2-1.8 4-4 4 -2.21 0-4-1.8-4-4 0-2.21 1.79-4 4-4 2.2 0 4 1.79 4 4Zm-2 0c0 1.1-.9 2-2 2 -1.11 0-2-.9-2-2 0-1.11.89-2 2-2 1.1 0 2 .89 2 2Z"/><path d="M12 3c5.59 0 10.28 3.82 11.62 9 -1.34 5.17-6.04 9-11.63 9C6.39 21 1.7 17.17.36 12c1.33-5.18 6.03-9 11.62-9Zm0 16c-4.48 0-8.27-2.95-9.55-7 1.27-4.06 5.06-7 9.54-7 4.47 0 8.26 2.94 9.54 7 -1.28 4.05-5.07 7-9.55 7Z"/></g></svg>
